!!!Melodie: eigene
!!!Typ: Lied
**kern	**silbe	**silbe	**silbe	**silbe	**silbe	**silbe
*clefG2	*lang:DE	*lang:DE	*lang:DE	*lang:DE	*lang:DE	*lang:DE
*k[b-]	*	*	*	*	*	*
*M4/2	*	*	*	*	*	*
2c	Dein	O	Dein	Und	O	O
=	=	=	=	=	=	=
2f	Kö#	mäch#	Reich	wo	Herr	lass
2g	#nig	#t'ger	ist	du	von	dein
4a	kommt	Herr#	nicht	kom#	gro#	Licht
4cc	in	#scher	von	#mest	#ßer	auf
4b-	nie#	oh#	die#	her#	Huld	Er#
4a	#der'n	#ne	#ser	#ge#	und	#den
=	=	=	=	=	=	=
2g	Hül#	Hee#	Er#	#zo#	Treu#	sie#
2f	#len,	#re,	#den,	#gen,	#e,	#gen,
2r	%	%	%	%	%	%
2g	ihn	ge#	doch	da	O	die
=	=	=	=	=	=	=
2g	trägt	#walt'#	al#	eb#	kom#	Macht
2a	der	#ger	#ler	#nen	#me	der
4g	last#	Kämp#	Er#	sich	du	Fins#
4e	#bar'n	#fer	#de	des	auch	#ter#
4f	Es'#	oh#	Rei#	Mee#	jetzt	#nis
4e	#lin	#ne	#che	#res	auf’s	er#
=	=	=	=	=	=	=
2d	Fül#	Spee#	wer#	Wo#	Neu#	#lie#
2c	#len,	#re,	#den	#gen,	#e	#gen
2r	%	%	%	%	%	%
2c	Em#	O	dem,	es	zu	und
=	=	=	=	=	=	=
4f	#pfang'	Frie#	das	schweigt	uns,	lösch’
4g	ihn	#dens#	du	der	die	der
4a	froh,	#fürst	grün#	Sturm,	wir	Zwie#
4dd	Je#	von	#dest,	von	sind	#tracht
2cc	#ru#	gro#	un#	dir	schwer	Glim#
2b	#sa#	#ßer	#ter#	be#	ver#	#men
=	=	=	=	=	=	=
1cc	#lem!	Macht!	#tan.	#droht.	#stört.	aus;
2r	%	%	%	%	%	%
2cc	Trag’	Es	Be#	Du	Not	dass
=	=	=	=	=	=	=
2f	ihm	wol#	#waff#	kommst,	ist	wir,
2g	ent#	#len	#net	auf	es,	die
4a	#ge#	wir	mit	den	dass	Völ#
4cc	#gen	der	des	em#	du	#ker
4b-	Frie#	Er#	Glau#	#por#	selbst	und
4a	#dens#	#de	#bens	#ten	hie#	die
=	=	=	=	=	=	=
2g	#pal#	Her#	Wor#	Trif#	#nie#	Thro#
2f	#men,	#ren	#ten	#ten	#den	#nen,
2r	%	%	%	%	%	%
2g	Be#	den	zieht	des	kommst	ver#
=	=	=	=	=	=	=
2g	#streu'	Weg	dei#	Le#	zu	#eint
2a	den	zu	#ne	#bens	er#	als
4g	Pfad	dei#	Schar	neu#	#neu#	Brü#
4e	mit	#nem	nach	#en	#ern	#der
4f	grü#	Thro#	den	Bund	dei#	wie#
4e	#nen	#ne	vier	zu	#nen	#der
=	=	=	=	=	=	=
2d	Hal#	sper#	Or#	stif#	Frie#	woh#
2c	#men!	#ren,	#ten	#ten,	#den,	#nen
2r	%	%	%	%	%	%
2c	So	doch	der	und	da#	in
=	=	=	=	=	=	=
2f	ist’s	du	Welt	schlägst	#ge#	dei#
2g	dem	ge#	hi#	in	#gen	#nes
(4.a	Her#	#winnst	#naus	Fes#	sich	gro#
8b-	|	|	|	|	|	|
4cc)	|	|	|	|	|	|
4dd	#ren	ihn	und	#sel	die	#ßen
=	=	=	=	=	=	=
(4cc	an#	oh#	macht	Sünd’	Welt	Va#
8Lb-	|	|	|	|	|	|
8Ja	|	|	|	|	|	|
4g)	|	|	|	|	|	|
4g	#ge#	#ne	dir	und	em#	#ters
2f	#nehm.	Schlacht.	Bahn.	Tod.	#pört.	Haus!
==	==	==	==	==	==	==
*-	*-	*-	*-	*-	*-	*-
